icons/chevron/right.svg

<svg width="32" height="32" viewBox="0 0 32 32" fill="none" xmlns="http://www.w3.org/2000/svg">
<path fill-rule="evenodd" clip-rule="evenodd" d="M18.5858 16L12.6262 10.0404L14.0404 8.62624L20.7071 15.2929L21.4142 16L20.7071 16.7071L14.0404 23.3738L12.6262 21.9596L18.5858 16Z" fill="black"/>
</svg>

<svg viewBox="0 0 32 32" xmlns="http://www.w3.org/2000/svg"><path fill-rule="evenodd" d="M18.586 16l-5.96-5.96 1.414-1.414 6.667 6.667.707.707-.707.707-6.667 6.667-1.414-1.414 5.96-5.96z"/></svg>
